actions/22/edit-find.svg

<?xml version="1.0" encoding="UTF-8" standalone="no"?>
<!-- Created with Inkscape (http://www.inkscape.org/) -->

<svg
   xmlns:dc="http://purl.org/dc/elements/1.1/"
   xmlns:cc="http://creativecommons.org/ns#"
   xmlns:rdf="http://www.w3.org/1999/02/22-rdf-syntax-ns#"
   xmlns:svg="http://www.w3.org/2000/svg"
   xmlns="http://www.w3.org/2000/svg"
   xmlns:xlink="http://www.w3.org/1999/xlink"
   xmlns:inkscape="http://www.inkscape.org/namespaces/inkscape"
   version="1.0"
   width="22"
   height="22"
   id="svg2">
  <metadata
     id="metadata49">
    <rdf:RDF>
      <cc:Work
         rdf:about="">
        <dc:format>image/svg+xml</dc:format>
        <dc:type
           rdf:resource="http://purl.org/dc/dcmitype/StillImage" />
      </cc:Work>
    </rdf:RDF>
  </metadata>
  <defs
     id="defs4">
    <linearGradient
       id="linearGradient8838">
      <stop
         id="stop8840"
         style="stop-color:#000000;stop-opacity:1"
         offset="0" />
      <stop
         id="stop8842"
         style="stop-color:#000000;stop-opacity:0"
         offset="1" />
    </linearGradient>
    <radialGradient
       cx="62.625"
       cy="4.625"
       r="10.625"
       fx="62.625"
       fy="4.625"
       id="radialGradient2506"
       xlink:href="#linearGradient8838"
       gradientUnits="userSpaceOnUse"
       gradientTransform="matrix(1,0,0,0.341176,0,3.047059)" />
    <linearGradient
       id="linearGradient3277-442">
      <stop
         id="stop3378"
         style="stop-color:#575757;stop-opacity:1"
         offset="0" />
      <stop
         id="stop3380"
         style="stop-color:#333333;stop-opacity:1"
         offset="1" />
    </linearGradient>
    <linearGradient
       x1="32.892574"
       y1="27.988184"
       x2="31.364458"
       y2="29.484051"
       id="linearGradient2543"
       xlink:href="#linearGradient3277-442"
       gradientUnits="userSpaceOnUse"
       gradientTransform="matrix(0.5018785,0,0,0.462207,-0.3803386,1.9030377)" />
    <linearGradient
       id="linearGradient11114-516">
      <stop
         id="stop3372"
         style="stop-color:#242424;stop-opacity:0.99215686"
         offset="0" />
      <stop
         id="stop3374"
         style="stop-color:#656565;stop-opacity:1"
         offset="1" />
    </linearGradient>
    <linearGradient
       x1="-172.65306"
       y1="99.667191"
       x2="-164.71831"
       y2="91.972626"
       id="linearGradient2541"
       xlink:href="#linearGradient11114-516"
       gradientUnits="userSpaceOnUse"
       gradientTransform="matrix(0.1953514,0,0,0.1799097,50.0016,-0.8912687)" />
    <linearGradient
       id="linearGradient3294">
      <stop
         id="stop3296"
         style="stop-color:#ffffff;stop-opacity:0.19520548"
         offset="0" />
      <stop
         id="stop3298"
         style="stop-color:#ffffff;stop-opacity:0"
         offset="1" />
    </linearGradient>
    <linearGradient
       x1="212.04402"
       y1="123.74026"
       x2="210.58083"
       y2="74.261711"
       id="linearGradient2538"
       xlink:href="#linearGradient3294"
       gradientUnits="userSpaceOnUse"
       gradientTransform="matrix(0.1953514,0,0,0.1799097,-25.223109,0.847388)" />
    <linearGradient
       id="linearGradient4454-600">
      <stop
         id="stop3408"
         style="stop-color:#ffffff;stop-opacity:0.64726025"
         offset="0" />
      <stop
         id="stop3410"
         style="stop-color:#ffffff;stop-opacity:0.19520548"
         offset="1" />
    </linearGradient>
    <radialGradient
       cx="18.240929"
       cy="21.817987"
       r="8.3085051"
       fx="18.240929"
       fy="21.817987"
       id="radialGradient2514"
       xlink:href="#linearGradient4454-600"
       gradientUnits="userSpaceOnUse" />
    <linearGradient
       id="linearGradient4467-402">
      <stop
         id="stop3390"
         style="stop-color:#ffffff;stop-opacity:1"
         offset="0" />
      <stop
         id="stop3392"
         style="stop-color:#ffffff;stop-opacity:0.24761905"
         offset="1" />
    </linearGradient>
    <radialGradient
       cx="15.414371"
       cy="13.078408"
       r="6.65625"
       fx="15.414371"
       fy="13.078408"
       id="radialGradient2533"
       xlink:href="#linearGradient4467-402"
       gradientUnits="userSpaceOnUse"
       gradientTransform="matrix(1.4500546,0,0,1.1280465,-15.280129,-9.906347)" />
    <linearGradient
       id="linearGradient11104-770">
      <stop
         id="stop3402"
         style="stop-color:#333333;stop-opacity:1"
         offset="0" />
      <stop
         id="stop3404"
         style="stop-color:#333333;stop-opacity:0.6122449"
         offset="1" />
    </linearGradient>
    <linearGradient
       x1="41.541653"
       y1="68.291702"
       x2="41.485142"
       y2="4.5362983"
       id="linearGradient2530"
       xlink:href="#linearGradient11104-770"
       gradientUnits="userSpaceOnUse"
       gradientTransform="matrix(0.1906508,0,0,0.1908549,0.5616077,1.5616236)" />
    <linearGradient
       id="linearGradient2300-465">
      <stop
         id="stop3396"
         style="stop-color:#343434;stop-opacity:0.97647059"
         offset="0" />
      <stop
         id="stop3398"
         style="stop-color:#929292;stop-opacity:1"
         offset="1" />
    </linearGradient>
    <linearGradient
       x1="173.09576"
       y1="75.31868"
       x2="173.09576"
       y2="11.949074"
       id="linearGradient2528"
       xlink:href="#linearGradient2300-465"
       gradientUnits="userSpaceOnUse"
       gradientTransform="matrix(0.1906508,0,0,0.1908549,-24.167929,0.1252679)" />
    <linearGradient
       id="linearGradient6209-717">
      <stop
         id="stop3366"
         style="stop-color:#979797;stop-opacity:1"
         offset="0" />
      <stop
         id="stop3368"
         style="stop-color:#000000;stop-opacity:0.34117648"
         offset="1" />
    </linearGradient>
    <linearGradient
       x1="173.09576"
       y1="75.31868"
       x2="173.09576"
       y2="11.949074"
       id="linearGradient2525"
       xlink:href="#linearGradient6209-717"
       gradientUnits="userSpaceOnUse"
       gradientTransform="matrix(0.1815664,0,0,0.1817607,-22.545212,0.4075216)" />
  </defs>
  <g
     transform="translate(-1,-1)"
     id="layer1">
    <path
       d="M 13.679117,12.5 22.413809,19.986728 21.203058,21.5 12.5,13.401362 13.679117,12.5 z"
       inkscape:connector-curvature="0"
       id="path11112"
       style="fill:url(#linearGradient2541);fill-opacity:1;fill-rule:evenodd;stroke:url(#linearGradient2543);stroke-width:1;stroke-linecap:round;stroke-linejoin:round;stroke-miterlimit:4;stroke-opacity:1;stroke-dasharray:none;display:inline" />
    <path
       d="m 21.217785,21.008568 -7.005051,-8.044248 8.475248,6.849559 -1.470197,1.194689 0,0 z"
       inkscape:connector-curvature="0"
       id="path11122"
       style="fill:url(#linearGradient2538);fill-opacity:1;fill-rule:evenodd;stroke:none;display:inline" />
    <path
       d="m 247.90924,110.29199 c 0,1.46698 -2.17896,2.6562 -4.86685,2.6562 -2.68789,0 -4.86685,-1.18922 -4.86685,-2.6562 0,-1.46698 2.17896,-2.6562 4.86685,-2.6562 2.68789,0 4.86685,1.18922 4.86685,2.6562 z"
       inkscape:connector-curvature="0"
       transform="matrix(0.1837074,-0.1915779,0.2354746,0.1427652,-48.692604,51.644667)"
       id="path13082"
       style="fill:#3e3e3e;fill-opacity:1;stroke:none;display:inline" />
    <path
       d="m 25.897786,18.478292 c 7.12e-4,4.589164 -3.719341,8.309794 -8.308505,8.309794 -4.589164,0 -8.309217,-3.72063 -8.308505,-8.309794 -7.12e-4,-4.589164 3.719341,-8.309794 8.308505,-8.309794 4.589164,0 8.309217,3.72063 8.308505,8.309794 l 0,0 z"
       inkscape:connector-curvature="0"
       transform="matrix(0.7030485,0,0,0.6866873,-3.2377028,-4.4914744)"
       id="path4452"
       style="opacity:0.4;fill:url(#radialGradient2514);fill-opacity:1;fill-rule:evenodd;stroke:none;stroke-width:0.88163906;marker:none;visibility:visible;display:inline" />
    <path
       d="m 8.8877932,3.285826 c -2.9122238,0 -5.2704608,2.112213 -5.2704608,4.7206197 0,0.7533185 0.065298,1.5314093 0.4158554,2.1635933 0.7003648,0.231216 1.6140995,0.303562 2.4037328,0.303562 3.4509655,0 6.4192074,-2.5625743 6.6321734,-5.6057008 C 12.101092,3.8433232 10.502538,3.285826 8.8877932,3.285826 z"
       inkscape:connector-curvature="0"
       id="path4462"
       style="opacity:0.6;fill:url(#radialGradient2533);fill-opacity:1;fill-rule:evenodd;stroke:none;stroke-width:1;marker:none;visibility:visible;display:inline;overflow:visible" />
    <path
       d="M 9.0000005,2.5 C 5.4126135,2.5 2.499998,5.1886101 2.5,8.4999999 2.5,11.811391 5.4126135,14.5 9.0000005,14.5 12.587385,14.5 15.5,11.811391 15.5,8.4999999 15.5,5.1886101 12.587386,2.5 9.0000005,2.5 z m 0.077451,0.3936385 c 3.2107345,0 5.8208075,2.4040776 5.8208075,5.3677935 0,2.963715 -2.610073,5.367794 -5.8208075,5.367794 -3.2107343,0 -5.8148483,-2.404078 -5.8148483,-5.367794 0,-2.9637159 2.604114,-5.3677935 5.8148483,-5.3677935 l 0,0 z"
       inkscape:connector-curvature="0"
       id="path2298"
       style="fill:url(#linearGradient2528);fill-opacity:1;stroke:url(#linearGradient2530);stroke-width:1;stroke-linecap:round;stroke-linejoin:round;stroke-miterlimit:4;stroke-opacity:1;stroke-dasharray:none;display:inline" />
    <path
       d="m 9.0417066,2.6729635 c -3.4164491,0 -6.1842359,2.5601138 -6.1842359,5.7137188 0,3.1536037 2.7677849,5.7137167 6.1842359,5.7137167 3.4164494,0 6.1901934,-2.560114 6.1901934,-5.7137167 0,-3.153605 -2.773746,-5.7137188 -6.1901934,-5.7137188 l 0,0 z m 0.035747,0.220676 c 3.2107324,0 5.5661824,2.4040786 5.5661824,5.3677936 0,2.9637149 -2.35545,5.1128949 -5.5661824,5.1128949 -3.2107351,0 -5.6026612,-2.149179 -5.6026612,-5.1128949 0,-2.963715 2.3919261,-5.3677936 5.6026612,-5.3677936 l 0,0 z"
       inkscape:connector-curvature="0"
       id="path4267"
       style="fill:url(#linearGradient2525);fill-opacity:1;stroke:none;display:inline" />
  </g>
</svg>

<?xml version="1.0" encoding="UTF-8" standalone="no"?>
<!-- Created with Inkscape (http://www.inkscape.org/) -->
<svg
   xmlns:dc="http://purl.org/dc/elements/1.1/"
   xmlns:cc="http://creativecommons.org/ns#"
   xmlns:rdf="http://www.w3.org/1999/02/22-rdf-syntax-ns#"
   xmlns:svg="http://www.w3.org/2000/svg"
   xmlns="http://www.w3.org/2000/svg"
   xmlns:xlink="http://www.w3.org/1999/xlink"
   xmlns:sodipodi="http://sodipodi.sourceforge.net/DTD/sodipodi-0.dtd"
   xmlns:inkscape="http://www.inkscape.org/namespaces/inkscape"
   version="1.0"
   width="22"
   height="22"
   id="svg2"
   sodipodi:version="0.32"
   inkscape:version="0.46"
   sodipodi:docname="edit-find.svg"
   inkscape:output_extension="org.inkscape.output.svg.inkscape">
  <metadata
     id="metadata49">
    <rdf:RDF>
      <cc:Work
         rdf:about="">
        <dc:format>image/svg+xml</dc:format>
        <dc:type
           rdf:resource="http://purl.org/dc/dcmitype/StillImage" />
      </cc:Work>
    </rdf:RDF>
  </metadata>
  <sodipodi:namedview
     inkscape:window-height="706"
     inkscape:window-width="640"
     inkscape:pageshadow="2"
     inkscape:pageopacity="0.0"
     guidetolerance="10.0"
     gridtolerance="10.0"
     objecttolerance="10.0"
     borderopacity="1.0"
     bordercolor="#666666"
     pagecolor="#ffffff"
     id="base"
     showgrid="false"
     inkscape:zoom="10.375"
     inkscape:cx="12"
     inkscape:cy="12"
     inkscape:window-x="0"
     inkscape:window-y="24"
     inkscape:current-layer="svg2" />
  <defs
     id="defs4">
    <inkscape:perspective
       sodipodi:type="inkscape:persp3d"
       inkscape:vp_x="0 : 12 : 1"
       inkscape:vp_y="0 : 1000 : 0"
       inkscape:vp_z="24 : 12 : 1"
       inkscape:persp3d-origin="12 : 8 : 1"
       id="perspective51" />
    <linearGradient
       id="linearGradient8838">
      <stop
         id="stop8840"
         style="stop-color:#000000;stop-opacity:1"
         offset="0" />
      <stop
         id="stop8842"
         style="stop-color:#000000;stop-opacity:0"
         offset="1" />
    </linearGradient>
    <radialGradient
       cx="62.625"
       cy="4.625"
       r="10.625"
       fx="62.625"
       fy="4.625"
       id="radialGradient2506"
       xlink:href="#linearGradient8838"
       gradientUnits="userSpaceOnUse"
       gradientTransform="matrix(1,0,0,0.341176,0,3.047059)" />
    <linearGradient
       id="linearGradient3277-442">
      <stop
         id="stop3378"
         style="stop-color:#575757;stop-opacity:1"
         offset="0" />
      <stop
         id="stop3380"
         style="stop-color:#333333;stop-opacity:1"
         offset="1" />
    </linearGradient>
    <linearGradient
       x1="32.892574"
       y1="27.988184"
       x2="31.364458"
       y2="29.484051"
       id="linearGradient2543"
       xlink:href="#linearGradient3277-442"
       gradientUnits="userSpaceOnUse"
       gradientTransform="matrix(0.5018785,0,0,0.462207,-0.3803386,1.9030377)" />
    <linearGradient
       id="linearGradient11114-516">
      <stop
         id="stop3372"
         style="stop-color:#242424;stop-opacity:0.99215686"
         offset="0" />
      <stop
         id="stop3374"
         style="stop-color:#656565;stop-opacity:1"
         offset="1" />
    </linearGradient>
    <linearGradient
       x1="-172.65306"
       y1="99.667191"
       x2="-164.71831"
       y2="91.972626"
       id="linearGradient2541"
       xlink:href="#linearGradient11114-516"
       gradientUnits="userSpaceOnUse"
       gradientTransform="matrix(0.1953514,0,0,0.1799097,50.0016,-0.8912687)" />
    <linearGradient
       id="linearGradient3294">
      <stop
         id="stop3296"
         style="stop-color:#ffffff;stop-opacity:0.19520548"
         offset="0" />
      <stop
         id="stop3298"
         style="stop-color:#ffffff;stop-opacity:0"
         offset="1" />
    </linearGradient>
    <linearGradient
       x1="212.04402"
       y1="123.74026"
       x2="210.58083"
       y2="74.261711"
       id="linearGradient2538"
       xlink:href="#linearGradient3294"
       gradientUnits="userSpaceOnUse"
       gradientTransform="matrix(0.1953514,0,0,0.1799097,-25.223109,0.847388)" />
    <linearGradient
       id="linearGradient4454-600">
      <stop
         id="stop3408"
         style="stop-color:#ffffff;stop-opacity:0.64726025"
         offset="0" />
      <stop
         id="stop3410"
         style="stop-color:#ffffff;stop-opacity:0.19520548"
         offset="1" />
    </linearGradient>
    <radialGradient
       cx="18.240929"
       cy="21.817987"
       r="8.3085051"
       fx="18.240929"
       fy="21.817987"
       id="radialGradient2514"
       xlink:href="#linearGradient4454-600"
       gradientUnits="userSpaceOnUse" />
    <linearGradient
       id="linearGradient4467-402">
      <stop
         id="stop3390"
         style="stop-color:#ffffff;stop-opacity:1"
         offset="0" />
      <stop
         id="stop3392"
         style="stop-color:#ffffff;stop-opacity:0.24761905"
         offset="1" />
    </linearGradient>
    <radialGradient
       cx="15.414371"
       cy="13.078408"
       r="6.65625"
       fx="15.414371"
       fy="13.078408"
       id="radialGradient2533"
       xlink:href="#linearGradient4467-402"
       gradientUnits="userSpaceOnUse"
       gradientTransform="matrix(1.4500546,0,0,1.1280465,-15.280129,-9.906347)" />
    <linearGradient
       id="linearGradient11104-770">
      <stop
         id="stop3402"
         style="stop-color:#333333;stop-opacity:1"
         offset="0" />
      <stop
         id="stop3404"
         style="stop-color:#333333;stop-opacity:0.6122449"
         offset="1" />
    </linearGradient>
    <linearGradient
       x1="41.541653"
       y1="68.291702"
       x2="41.485142"
       y2="4.5362983"
       id="linearGradient2530"
       xlink:href="#linearGradient11104-770"
       gradientUnits="userSpaceOnUse"
       gradientTransform="matrix(0.1906508,0,0,0.1908549,0.5616077,1.5616236)" />
    <linearGradient
       id="linearGradient2300-465">
      <stop
         id="stop3396"
         style="stop-color:#343434;stop-opacity:0.97647059"
         offset="0" />
      <stop
         id="stop3398"
         style="stop-color:#929292;stop-opacity:1"
         offset="1" />
    </linearGradient>
    <linearGradient
       x1="173.09576"
       y1="75.31868"
       x2="173.09576"
       y2="11.949074"
       id="linearGradient2528"
       xlink:href="#linearGradient2300-465"
       gradientUnits="userSpaceOnUse"
       gradientTransform="matrix(0.1906508,0,0,0.1908549,-24.167929,0.1252679)" />
    <linearGradient
       id="linearGradient6209-717">
      <stop
         id="stop3366"
         style="stop-color:#979797;stop-opacity:1"
         offset="0" />
      <stop
         id="stop3368"
         style="stop-color:#000000;stop-opacity:0.34117648"
         offset="1" />
    </linearGradient>
    <linearGradient
       x1="173.09576"
       y1="75.31868"
       x2="173.09576"
       y2="11.949074"
       id="linearGradient2525"
       xlink:href="#linearGradient6209-717"
       gradientUnits="userSpaceOnUse"
       gradientTransform="matrix(0.1815664,0,0,0.1817607,-22.545212,0.4075216)" />
  </defs>
  <g
     id="layer1"
     transform="translate(-1,-1)">
    <path
       d="M 13.679117,12.5 L 22.413809,19.986728 L 21.203058,21.5 L 12.5,13.401362 L 13.679117,12.5 z"
       id="path11112"
       style="fill:url(#linearGradient2541);fill-opacity:1;fill-rule:evenodd;stroke:url(#linearGradient2543);stroke-width:1;stroke-linecap:round;stroke-linejoin:round;stroke-miterlimit:4;stroke-dasharray:none;stroke-opacity:1;display:inline" />
    <path
       d="M 21.217785,21.008568 L 14.212734,12.96432 L 22.687982,19.813879 L 21.217785,21.008568 L 21.217785,21.008568 z"
       id="path11122"
       style="fill:url(#linearGradient2538);fill-opacity:1;fill-rule:evenodd;stroke:none;display:inline" />
    <path
       d="M 247.90924,110.29199 C 247.90924,111.75897 245.73028,112.94819 243.04239,112.94819 C 240.3545,112.94819 238.17554,111.75897 238.17554,110.29199 C 238.17554,108.82501 240.3545,107.63579 243.04239,107.63579 C 245.73028,107.63579 247.90924,108.82501 247.90924,110.29199 z"
       transform="matrix(0.1837074,-0.1915779,0.2354746,0.1427652,-48.692604,51.644667)"
       id="path13082"
       style="fill:#3e3e3e;fill-opacity:1;stroke:none;display:inline" />
    <path
       d="M 25.897786,18.478292 C 25.898498,23.067456 22.178445,26.788086 17.589281,26.788086 C 13.000117,26.788086 9.280064,23.067456 9.280776,18.478292 C 9.280064,13.889128 13.000117,10.168498 17.589281,10.168498 C 22.178445,10.168498 25.898498,13.889128 25.897786,18.478292 L 25.897786,18.478292 z"
       transform="matrix(0.7030485,0,0,0.6866873,-3.2377028,-4.4914744)"
       id="path4452"
       style="opacity:0.4;fill:url(#radialGradient2514);fill-opacity:1;fill-rule:evenodd;stroke:none;stroke-width:0.88163906;marker:none;visibility:visible;display:inline" />
    <path
       d="M 8.8877932,3.285826 C 5.9755694,3.285826 3.6173324,5.398039 3.6173324,8.0064457 C 3.6173324,8.7597642 3.6826304,9.537855 4.0331878,10.170039 C 4.7335526,10.401255 5.6472873,10.473601 6.4369206,10.473601 C 9.8878861,10.473601 12.856128,7.9110267 13.069094,4.8679002 C 12.101092,3.8433232 10.502538,3.285826 8.8877932,3.285826 z"
       id="path4462"
       style="opacity:0.6;fill:url(#radialGradient2533);fill-opacity:1;fill-rule:evenodd;stroke:none;stroke-width:1;marker:none;visibility:visible;display:inline;overflow:visible" />
    <path
       d="M 9.0000005,2.5 C 5.4126135,2.5 2.499998,5.1886101 2.5,8.4999999 C 2.5,11.811391 5.4126135,14.5 9.0000005,14.5 C 12.587385,14.5 15.5,11.811391 15.5,8.4999999 C 15.5,5.1886101 12.587386,2.5 9.0000005,2.5 z M 9.0774515,2.8936385 C 12.288186,2.8936385 14.898259,5.2977161 14.898259,8.261432 C 14.898259,11.225147 12.288186,13.629226 9.0774515,13.629226 C 5.8667172,13.629226 3.2626032,11.225148 3.2626032,8.261432 C 3.2626032,5.2977161 5.8667172,2.8936385 9.0774515,2.8936385 L 9.0774515,2.8936385 z"
       id="path2298"
       style="fill:url(#linearGradient2528);fill-opacity:1;stroke:url(#linearGradient2530);stroke-width:1;stroke-linecap:round;stroke-linejoin:round;stroke-miterlimit:4;stroke-dasharray:none;stroke-opacity:1;display:inline" />
    <path
       d="M 9.0417066,2.6729635 C 5.6252575,2.6729635 2.8574707,5.2330773 2.8574707,8.3866823 C 2.8574707,11.540286 5.6252556,14.100399 9.0417066,14.100399 C 12.458156,14.100399 15.2319,11.540285 15.2319,8.3866823 C 15.2319,5.2330773 12.458154,2.6729635 9.0417066,2.6729635 L 9.0417066,2.6729635 z M 9.0774536,2.8936395 C 12.288186,2.8936395 14.643636,5.2977181 14.643636,8.2614331 C 14.643636,11.225148 12.288186,13.374328 9.0774536,13.374328 C 5.8667185,13.374328 3.4747924,11.225149 3.4747924,8.2614331 C 3.4747924,5.2977181 5.8667185,2.8936395 9.0774536,2.8936395 L 9.0774536,2.8936395 z"
       id="path4267"
       style="fill:url(#linearGradient2525);fill-opacity:1;stroke:none;display:inline" />
  </g>
</svg>
